16x16/apps/ocenaudio.svg

<svg xmlns="http://www.w3.org/2000/svg" width="16" height="16" version="1">
 <path style="fill:#4f4f4f" d="M 8.7109375 0.001953125 C 8.4529087 0.013396765 8.1949118 0.0815825 7.9472656 0.171875 C 6.4533441 0.59570973 5.1197523 1.253545 3.9277344 1.9296875 C 3.9113203 1.9392222 3.8950427 1.9489878 3.8789062 1.9589844 C 3.6608721 2.0911475 3.2292289 2.3018284 2.7480469 2.8242188 C 2.2690035 3.3442871 1.7986635 4.5171657 2.0898438 5.5253906 C 2.2814129 6.5147621 2.4982259 7.5827649 2.9316406 8.6816406 C 3.0031468 8.8620722 3.1005183 9.0311387 3.2207031 9.1835938 C 3.1486171 9.577979 2.956844 10.031445 2.9824219 10.306641 C 3.0304149 10.823001 3.1159874 11.151416 3.1269531 11.248047 C 3.1275325 11.257847 3.1281863 11.267584 3.1289062 11.277344 C 3.1573432 11.499865 3.1787112 11.928097 3.4277344 12.527344 C 3.6703708 13.111221 4.4442612 13.969882 5.4277344 14.162109 C 5.5196094 14.184949 5.6397471 14.189975 5.7617188 14.203125 C 6.3234743 14.91764 7.0517974 15.557802 8.1230469 15.888672 C 8.1256469 15.889972 8.1282594 15.891278 8.1308594 15.892578 C 8.3054479 15.945618 8.5256601 15.966915 8.7460938 15.984375 C 9.7084067 16.086032 10.604339 15.691284 11.140625 15.232422 C 11.693851 14.759065 12.01434 14.243519 12.248047 13.744141 C 12.250647 13.738341 12.253259 13.732433 12.255859 13.726562 C 12.375554 13.464159 12.377118 13.182936 12.466797 12.914062 C 12.713608 12.766488 13.079281 12.711887 13.25 12.523438 C 13.621853 12.112958 13.883193 11.606882 13.947266 10.960938 C 14.021526 10.212172 14.011304 9.4821735 13.958984 8.78125 C 13.93257 8.2635852 13.827858 7.9025789 13.613281 7.4589844 C 13.534307 7.2957068 13.416253 7.0939318 13.257812 6.8925781 C 12.218466 4.5288804 11.620767 -0.059534465 8.7109375 0.001953125 z M 8.7558594 2.7910156 L 8.7910156 2.7988281 L 8.8417969 2.8339844 C 9.2676397 3.3358845 9.5342455 3.9556327 9.8066406 4.5527344 C 9.8961053 4.9224518 10.383548 5.437715 9.9707031 5.734375 C 9.8749997 6.1076765 9.5761115 6.1378698 9.34375 5.8417969 C 9.0157276 5.4469476 9.4244972 4.8346511 9.2363281 4.453125 C 9.1347878 4.855178 8.8041584 5.6799865 8.3613281 5.0058594 C 8.0656178 4.4659893 7.9910727 3.8224785 7.6523438 3.2988281 C 7.6481051 2.8895217 8.4362421 2.9740292 8.7558594 2.7910156 z M 7.3691406 3.2226562 L 7.4121094 3.2382812 C 7.7671924 3.8078023 8.0497964 4.6517153 7.5761719 5.2382812 C 6.9765278 5.2905141 6.6617411 4.6653394 6.4921875 4.1757812 C 6.2936916 3.6483703 6.3029528 4.319039 6.3613281 4.5292969 C 6.3166435 4.7899947 6.8565039 5.4335837 6.4648438 5.4199219 C 5.9515114 5.3439977 5.522546 5.0464072 5.2089844 4.6347656 C 4.9194697 5.0313994 5.5220901 5.4461148 5.796875 5.7050781 C 6.0130905 6.1327913 5.2088093 5.9515011 5.0234375 5.7695312 C 4.7081804 5.925948 5.4963935 6.1995648 5.5683594 6.4394531 C 5.2930289 6.8233663 4.6282866 6.3909246 4.7597656 5.90625 C 4.7032718 5.3619167 4.5861378 4.6463504 5.0996094 4.2832031 C 5.8205363 3.8607305 6.5866485 3.5075559 7.3691406 3.2226562 z"/>
 <path style="fill:#ffb925" d="M 8.8103401,2.0005177 C 8.750104,2.0031918 8.686076,2.0165516 8.6208722,2.0434846 7.3248085,2.393478 6.1065632,3.0015582 4.9389443,3.6645084 4.4858954,3.939396 3.8435263,4.3192452 4.0345768,4.9652336 4.2269543,5.9706738 4.4426694,6.9836718 4.8178411,7.9358085 5.0331707,7.7379787 4.724753,7.0875926 4.6889248,6.7561719 4.5348798,6.0567778 4.2854067,5.341826 4.3783536,4.6175923 4.6058965,4.0774265 5.2014602,3.8528817 5.6616569,3.5609973 6.6242917,3.0697041 7.6128033,2.5360256 8.6990033,2.4243275 9.3032267,2.3858358 9.4247123,3.2202973 9.7049411,3.6293536 9.9398347,4.0550808 10.067585,4.7539512 10.300691,5.0335899 10.181317,4.2910197 9.8116688,3.6177558 9.6385297,2.8871982 9.5272431,2.5082818 9.2319923,1.9817989 8.8103401,2.0005177 Z M 8.3571797,6.0003451 C 7.4599877,6.0173771 6.6003614,6.6919058 6.2613131,7.5725429 5.78254,8.8531856 6.0135331,10.319107 6.5269589,11.546981 c 0.4390379,1.029089 1.1325206,2.07826 2.1993903,2.408099 0.072306,0.02199 0.1473296,0.03513 0.2226736,0.03516 0.6816092,0.09511 1.2106962,-0.51927 1.4883972,-1.113233 0.597035,-1.310156 0.697985,-2.850718 0.404329,-4.2634874 C 10.612924,7.4570082 9.8528236,6.3424459 8.7439286,6.0354998 8.6156377,6.009802 8.48535,5.9979119 8.3571797,6.0003451 Z M 9.7733058,7.9475267 C 10.173526,7.8868506 9.9259549,8.1071603 9.7029879,8.1525961 9.3113805,8.3470312 10.145803,8.3628263 9.6697822,8.5334389 9.2694692,8.663375 9.6353701,8.7905186 9.8514369,8.820536 9.713891,9.028998 9.0348195,8.9105349 8.7009566,8.9924035 8.0300214,9.0041116 7.477226,9.4384136 6.8765954,9.6915921 6.5937688,9.7894542 7.0641566,9.4615655 7.0484838,9.396683 6.6824371,9.3732442 6.9864043,9.1984145 7.1676338,9.1252103 7.3524082,8.7041247 6.492847,9.0839049 6.4546875,8.8498316 7.0180426,8.6074387 7.6109287,9.0160166 8.1931044,8.8986576 8.8527894,8.8709489 9.1662493,8.1052836 9.7733058,7.9475267 Z m 1.6895852,0.015624 c -0.04026,-0.00723 -0.08187,-0.00307 -0.125009,0.011718 0.117519,1.1233761 0.02885,2.2574463 0.07422,3.3826663 0.251274,-0.01727 0.511939,-0.295799 0.543012,-0.609349 0.06127,-0.618416 0.0558,-1.2505712 0.0078,-1.8710125 -0.0152,-0.3227598 -0.218238,-0.8633919 -0.500039,-0.9140231 z M 5.4135907,9.0099809 c -0.075986,0.00946 -0.1830358,0.1021006 -0.2558794,0.2285057 -0.3298742,0.5349109 -0.085098,1.1911314 -0.019533,1.7694544 0.058465,0.457936 0.1364282,1.10545 0.6856004,1.191356 0.2963948,0.08741 0.1219694,-0.242847 0.093757,-0.376937 C 5.5897045,11.017608 5.4423037,10.146195 5.4878152,9.2755944 5.5348672,9.0735953 5.4895752,9.0005236 5.4135907,9.0099809 Z m 5.0453153,0.3945143 c 0.425912,0.084028 0.195178,0.8043078 0.203141,1.1972138 0.03076,0.744456 -0.137464,1.4762 -0.371122,2.171782 -0.222709,0.573595 -0.8563769,0.659807 -1.3594817,0.753873 -0.1443672,0.01161 -0.2911457,0.03184 -0.4355808,0.01172 -0.6822764,-0.07613 -0.9314691,-0.852234 -1.2930697,-1.357363 -0.2542038,-0.416214 -0.659163,-0.805872 -0.69732,-1.31635 0.074883,-0.299769 0.3260295,-0.698395 0.6465348,-0.703094 0.4352142,0.06338 0.8877613,0.116317 1.2969762,-0.109371 0.5545338,-0.3152516 1.1262029,-0.7061054 1.7852952,-0.6425498 0.09027,-0.01681 0.163783,-0.017863 0.224627,-0.00586 z M 9.1072383,12.029382 c -0.301898,0.01795 -0.6440041,0.28702 -0.2187671,0.492166 0.1953064,0.08577 0.4033082,-0.0494 0.5449644,-0.185538 0.020653,-0.237728 -0.1450586,-0.317397 -0.3261973,-0.306628 z"/>
 <path style="fill:#f4f4f7" d="M 9.9901197,9.6037053 C 9.1677641,9.5663453 8.6471995,10.524141 7.8180752,10.429842 7.373379,10.346371 6.7086195,10.410275 6.7672119,11.062627 c -0.1308072,0.286576 0.5568044,1.133247 0.5332447,0.499978 -0.066576,-0.606278 0.6818267,-0.524637 1.013751,-0.810512 0.5579062,-0.247426 1.1638238,-0.333211 1.7559964,-0.433575 0.123469,0.154492 0.445801,0.658324 0.496132,0.13476 C 10.508046,10.223655 10.71013,9.8324267 10.46086,9.6974512 10.309399,9.6399572 10.152201,9.5994092 9.9901197,9.6037053 Z"/>
</svg>

<svg xmlns="http://www.w3.org/2000/svg" width="16" height="16" version="1"><path style="fill:#4f4f4f" d="M8.71.002a2.59 2.59 0 0 0-.763.17C6.453.596 5.12 1.254 3.927 1.93l-.048.029c-.218.132-.65.343-1.131.865-.479.52-.95 1.693-.658 2.701.191.99.408 2.058.842 3.157.071.18.169.35.289.502-.072.394-.264.847-.239 1.123.048.516.134.844.145.941l.002.03c.028.222.05.65.299 1.25.242.583 1.016 1.442 2 1.634.092.023.212.028.334.041.561.715 1.29 1.355 2.361 1.686l.008.004c.174.053.395.074.615.091.962.102 1.858-.293 2.395-.752a4.25 4.25 0 0 0 1.107-1.488l.008-.017c.12-.263.121-.544.21-.813.248-.148.613-.202.784-.39.372-.411.633-.917.697-1.563.075-.749.064-1.479.012-2.18a3.138 3.138 0 0 0-.346-1.322 3.154 3.154 0 0 0-.355-.566C12.218 4.529 11.62-.06 8.71.002zm.046 2.789.035.008.05.035c.427.502.693 1.122.966 1.719.09.37.577.885.164 1.181-.096.374-.395.404-.627.108-.328-.395.08-1.007-.108-1.389-.101.402-.432 1.227-.875.553-.295-.54-.37-1.184-.709-1.707-.004-.41.784-.325 1.104-.508zm-1.387.432.043.015c.355.57.638 1.414.164 2-.6.053-.914-.573-1.084-1.062-.198-.528-.189.143-.13.353-.045.261.495.905.103.89-.513-.075-.942-.373-1.256-.784-.29.396.313.811.588 1.07.216.428-.588.247-.774.065-.315.156.473.43.545.67-.275.383-.94-.05-.808-.534-.057-.544-.174-1.26.34-1.623a13.91 13.91 0 0 1 2.27-1.06z"/><path style="fill:#ffb925" d="M8.81 2a.561.561 0 0 0-.19.043c-1.295.35-2.513.959-3.681 1.622-.453.274-1.095.654-.904 1.3.192 1.006.408 2.019.783 2.97.215-.197-.093-.847-.13-1.179-.153-.7-.403-1.414-.31-2.138.228-.54.823-.765 1.284-1.057.962-.491 1.95-1.025 3.037-1.137.604-.038.726.796 1.006 1.205.235.426.363 1.125.596 1.405-.12-.743-.49-1.416-.662-2.147-.112-.379-.407-.905-.829-.886zm-.453 4c-.897.017-1.757.692-2.096 1.573-.478 1.28-.247 2.746.266 3.974.439 1.03 1.132 2.078 2.2 2.408a.768.768 0 0 0 .222.035c.682.095 1.21-.519 1.488-1.113.597-1.31.698-2.85.405-4.263-.23-1.157-.99-2.272-2.098-2.579A1.8 1.8 0 0 0 8.357 6zm1.416 1.948c.4-.061.153.16-.07.205-.392.194.443.21-.033.38-.4.13-.035.258.181.288-.137.208-.816.09-1.15.171-.671.012-1.224.446-1.824.7-.283.097.187-.23.171-.295-.366-.024-.062-.199.12-.272.184-.42-.675-.041-.713-.275.563-.243 1.156.166 1.738.049.66-.028.973-.794 1.58-.951zm1.69.015a.247.247 0 0 0-.125.012c.117 1.123.029 2.257.074 3.383.251-.018.512-.296.543-.61.061-.618.056-1.25.008-1.87-.015-.324-.218-.864-.5-.915zM5.413 9.01c-.075.01-.182.102-.255.228-.33.535-.085 1.192-.02 1.77.059.458.137 1.105.686 1.191.296.088.122-.243.094-.377a5.937 5.937 0 0 1-.43-2.546c.047-.202.002-.275-.074-.266zm5.046.394c.426.085.195.805.203 1.198.03.744-.137 1.476-.371 2.171-.223.574-.856.66-1.36.754-.144.012-.29.032-.435.012-.682-.076-.932-.852-1.293-1.357-.254-.416-.66-.806-.698-1.317.075-.3.327-.698.647-.703.435.064.888.117 1.297-.11.555-.314 1.126-.705 1.785-.642a.6.6 0 0 1 .225-.006zM9.107 12.03c-.302.018-.644.287-.219.493.196.085.404-.05.545-.186.021-.238-.145-.317-.326-.307z"/><path style="fill:#f4f4f7" d="M9.99 9.604c-.822-.038-1.343.92-2.172.826-.445-.084-1.11-.02-1.05.633-.132.286.556 1.133.532.5-.066-.607.682-.525 1.014-.81.558-.248 1.164-.334 1.756-.434.124.154.446.658.496.134-.058-.23.144-.62-.105-.756a1.237 1.237 0 0 0-.47-.093z"/></svg>
